icons/modern/biting-lip.svg

<svg width="32" height="32" viewBox="0 0 32 32" fill="none" xmlns="http://www.w3.org/2000/svg">
<path d="M16.8125 11.3125C16.4921 11.4119 15.5614 11.5026 15.1875 11.3125C14.2656 10.8438 12.2656 10 11.1875 10C9.29689 10 8.11255 11.1118 6.98439 12.2188C6.15219 13.0353 3.78126 16.6094 2.79689 18.4062C1.91379 20.0183 2.79689 20.8647 3.20314 21.1406C6.95314 23.6875 13.3607 27.1094 17.8906 27.1094C22.4091 27.1094 26.8651 24.6192 29.1406 21.3125C29.53 20.7466 29.9219 19.4219 28.8281 17.6562C27.8333 16.0502 25.8166 13.004 24.9844 12.1875C23.8562 11.0806 22.5838 10 20.9219 10C19.26 10 18.1719 10.8906 16.8125 11.3125Z" fill="#FF4860"/>
<path d="M16.8125 11.3125C16.4921 11.4119 15.5614 11.5026 15.1875 11.3125C14.2656 10.8438 12.2656 10 11.1875 10C9.29689 10 8.11255 11.1118 6.98439 12.2188C6.15219 13.0353 3.78126 16.6094 2.79689 18.4062C1.91379 20.0183 2.79689 20.8647 3.20314 21.1406C6.95314 23.6875 13.3607 27.1094 17.8906 27.1094C22.4091 27.1094 26.8651 24.6192 29.1406 21.3125C29.53 20.7466 29.9219 19.4219 28.8281 17.6562C27.8333 16.0502 25.8166 13.004 24.9844 12.1875C23.8562 11.0806 22.5838 10 20.9219 10C19.26 10 18.1719 10.8906 16.8125 11.3125Z" fill="url(#paint0_linear_20020_7173)"/>
<path d="M16.8125 11.3125C16.4921 11.4119 15.5614 11.5026 15.1875 11.3125C14.2656 10.8438 12.2656 10 11.1875 10C9.29689 10 8.11255 11.1118 6.98439 12.2188C6.15219 13.0353 3.78126 16.6094 2.79689 18.4062C1.91379 20.0183 2.79689 20.8647 3.20314 21.1406C6.95314 23.6875 13.3607 27.1094 17.8906 27.1094C22.4091 27.1094 26.8651 24.6192 29.1406 21.3125C29.53 20.7466 29.9219 19.4219 28.8281 17.6562C27.8333 16.0502 25.8166 13.004 24.9844 12.1875C23.8562 11.0806 22.5838 10 20.9219 10C19.26 10 18.1719 10.8906 16.8125 11.3125Z" fill="url(#paint1_radial_20020_7173)"/>
<path d="M16.8125 11.3125C16.4921 11.4119 15.5614 11.5026 15.1875 11.3125C14.2656 10.8438 12.2656 10 11.1875 10C9.29689 10 8.11255 11.1118 6.98439 12.2188C6.15219 13.0353 3.78126 16.6094 2.79689 18.4062C1.91379 20.0183 2.79689 20.8647 3.20314 21.1406C6.95314 23.6875 13.3607 27.1094 17.8906 27.1094C22.4091 27.1094 26.8651 24.6192 29.1406 21.3125C29.53 20.7466 29.9219 19.4219 28.8281 17.6562C27.8333 16.0502 25.8166 13.004 24.9844 12.1875C23.8562 11.0806 22.5838 10 20.9219 10C19.26 10 18.1719 10.8906 16.8125 11.3125Z" fill="url(#paint2_radial_20020_7173)"/>
<path d="M16.8125 11.3125C16.4921 11.4119 15.5614 11.5026 15.1875 11.3125C14.2656 10.8438 12.2656 10 11.1875 10C9.29689 10 8.11255 11.1118 6.98439 12.2188C6.15219 13.0353 3.78126 16.6094 2.79689 18.4062C1.91379 20.0183 2.79689 20.8647 3.20314 21.1406C6.95314 23.6875 13.3607 27.1094 17.8906 27.1094C22.4091 27.1094 26.8651 24.6192 29.1406 21.3125C29.53 20.7466 29.9219 19.4219 28.8281 17.6562C27.8333 16.0502 25.8166 13.004 24.9844 12.1875C23.8562 11.0806 22.5838 10 20.9219 10C19.26 10 18.1719 10.8906 16.8125 11.3125Z" fill="url(#paint3_radial_20020_7173)"/>
<path d="M16.8125 11.3125C16.4921 11.4119 15.5614 11.5026 15.1875 11.3125C14.2656 10.8438 12.2656 10 11.1875 10C9.29689 10 8.11255 11.1118 6.98439 12.2188C6.15219 13.0353 3.78126 16.6094 2.79689 18.4062C1.91379 20.0183 2.79689 20.8647 3.20314 21.1406C6.95314 23.6875 13.3607 27.1094 17.8906 27.1094C22.4091 27.1094 26.8651 24.6192 29.1406 21.3125C29.53 20.7466 29.9219 19.4219 28.8281 17.6562C27.8333 16.0502 25.8166 13.004 24.9844 12.1875C23.8562 11.0806 22.5838 10 20.9219 10C19.26 10 18.1719 10.8906 16.8125 11.3125Z" fill="url(#paint4_radial_20020_7173)"/>
<path d="M16.8125 11.3125C16.4921 11.4119 15.5614 11.5026 15.1875 11.3125C14.2656 10.8438 12.2656 10 11.1875 10C9.29689 10 8.11255 11.1118 6.98439 12.2188C6.15219 13.0353 3.78126 16.6094 2.79689 18.4062C1.91379 20.0183 2.79689 20.8647 3.20314 21.1406C6.95314 23.6875 13.3607 27.1094 17.8906 27.1094C22.4091 27.1094 26.8651 24.6192 29.1406 21.3125C29.53 20.7466 29.9219 19.4219 28.8281 17.6562C27.8333 16.0502 25.8166 13.004 24.9844 12.1875C23.8562 11.0806 22.5838 10 20.9219 10C19.26 10 18.1719 10.8906 16.8125 11.3125Z" fill="url(#paint5_radial_20020_7173)"/>
<path d="M16.8125 11.3125C16.4921 11.4119 15.5614 11.5026 15.1875 11.3125C14.2656 10.8438 12.2656 10 11.1875 10C9.29689 10 8.11255 11.1118 6.98439 12.2188C6.15219 13.0353 3.78126 16.6094 2.79689 18.4062C1.91379 20.0183 2.79689 20.8647 3.20314 21.1406C6.95314 23.6875 13.3607 27.1094 17.8906 27.1094C22.4091 27.1094 26.8651 24.6192 29.1406 21.3125C29.53 20.7466 29.9219 19.4219 28.8281 17.6562C27.8333 16.0502 25.8166 13.004 24.9844 12.1875C23.8562 11.0806 22.5838 10 20.9219 10C19.26 10 18.1719 10.8906 16.8125 11.3125Z" fill="url(#paint6_radial_20020_7173)"/>
<path d="M4.07812 19.6719C7.07812 20.3281 6.88336 19.3125 12.5938 19.3125C15.9151 19.3125 18.6233 21.1952 21.5938 21.4531C23.7304 21.6387 26.3431 20.4041 27.9375 19.7969C27.6627 19.7071 25.4321 18.8288 24.8125 18.625C21.174 17.4281 20.8969 17.2812 15.5625 17.2812C9.85211 17.2812 6.98357 18.7115 4.07812 19.6719Z" fill="#0A0D2D"/>
<g filter="url(#filter0_i_20020_7173)">
<path d="M24.2188 18.4298C21.9084 17.6452 20.6094 17.1719 15.625 17.2657C11.7502 17.3386 9.92969 17.7735 7.77344 18.3907C7.95971 18.9034 8.45427 19.3396 9.01562 19.4219C10.3628 19.6196 12.8579 19.8204 15.8984 19.8204C19.1746 19.8204 21.6278 19.6054 23.0469 19.4063C23.6013 19.3286 24.0244 18.9332 24.2188 18.4298Z" fill="url(#paint7_linear_20020_7173)"/>
<path d="M24.2188 18.4298C21.9084 17.6452 20.6094 17.1719 15.625 17.2657C11.7502 17.3386 9.92969 17.7735 7.77344 18.3907C7.95971 18.9034 8.45427 19.3396 9.01562 19.4219C10.3628 19.6196 12.8579 19.8204 15.8984 19.8204C19.1746 19.8204 21.6278 19.6054 23.0469 19.4063C23.6013 19.3286 24.0244 18.9332 24.2188 18.4298Z" fill="url(#paint8_radial_20020_7173)"/>
</g>
<defs>
<filter id="filter0_i_20020_7173" x="7.77344" y="17.0503" width="16.4453" height="2.77009" filterUnits="userSpaceOnUse" color-interpolation-filters="sRGB">
<feFlood flood-opacity="0" result="BackgroundImageFix"/>
<feBlend mode="normal" in="SourceGraphic" in2="BackgroundImageFix" result="shape"/>
<feColorMatrix in="SourceAlpha" type="matrix" values="0 0 0 0 0 0 0 0 0 0 0 0 0 0 0 0 0 0 127 0" result="hardAlpha"/>
<feOffset dy="-0.20356"/>
<feGaussianBlur stdDeviation="0.30534"/>
<feComposite in2="hardAlpha" operator="arithmetic" k2="-1" k3="1"/>
<feColorMatrix type="matrix" values="0 0 0 0 0.560784 0 0 0 0 0.384314 0 0 0 0 0.576471 0 0 0 1 0"/>
<feBlend mode="normal" in2="shape" result="effect1_innerShadow_20020_7173"/>
</filter>
<linearGradient id="paint0_linear_20020_7173" x1="24.875" y1="18.4219" x2="8.50001" y2="18.5547" gradientUnits="userSpaceOnUse">
<stop offset="0.313754" stop-color="#FF58AD"/>
<stop offset="0.706857" stop-color="#FF58AD" stop-opacity="0"/>
</linearGradient>
<radialGradient id="paint1_radial_20020_7173" cx="0" cy="0" r="1" gradientUnits="userSpaceOnUse" gradientTransform="translate(24.0305 19.3856) rotate(148.28) scale(5.60093 2.76154)">
<stop stop-color="#FF6099"/>
<stop offset="1" stop-color="#FF6099" stop-opacity="0"/>
</radialGradient>
<radialGradient id="paint2_radial_20020_7173" cx="0" cy="0" r="1" gradientUnits="userSpaceOnUse" gradientTransform="translate(17.625 10) rotate(80.1342) scale(2.18862 4.90732)">
<stop stop-color="#A7464A"/>
<stop offset="1" stop-color="#A7464A" stop-opacity="0"/>
</radialGradient>
<radialGradient id="paint3_radial_20020_7173" cx="0" cy="0" r="1" gradientUnits="userSpaceOnUse" gradientTransform="translate(4.43751 15.7813) rotate(-46.6135) scale(12.5561 3.30154)">
<stop offset="0.326622" stop-color="#B34146"/>
<stop offset="1" stop-color="#B34146" stop-opacity="0"/>
</radialGradient>
<radialGradient id="paint4_radial_20020_7173" cx="0" cy="0" r="1" gradientUnits="userSpaceOnUse" gradientTransform="translate(13.5 10) rotate(34.0366) scale(4.29901 1.6058)">
<stop stop-color="#EE7278"/>
<stop offset="1" stop-color="#EE7278" stop-opacity="0"/>
</radialGradient>
<radialGradient id="paint5_radial_20020_7173" cx="0" cy="0" r="1" gradientUnits="userSpaceOnUse" gradientTransform="translate(11.9375 19.6563) rotate(72.7586) scale(1.89778 6.58459)">
<stop offset="0.2" stop-color="#E7284F"/>
<stop offset="1" stop-color="#EE2B51" stop-opacity="0"/>
</radialGradient>
<radialGradient id="paint6_radial_20020_7173" cx="0" cy="0" r="1" gradientUnits="userSpaceOnUse" gradientTransform="translate(12.9375 19.0937) rotate(90) scale(1.5625 7.4375)">
<stop offset="0.36" stop-color="#AD1638"/>
<stop offset="0.84" stop-color="#B11739" stop-opacity="0"/>
</radialGradient>
<linearGradient id="paint7_linear_20020_7173" x1="20.7861" y1="18.893" x2="8.02505" y2="18.893" gradientUnits="userSpaceOnUse">
<stop offset="0.321179" stop-color="#F5E4FF"/>
<stop offset="1" stop-color="#DAC6E4"/>
</linearGradient>
<radialGradient id="paint8_radial_20020_7173" cx="0" cy="0" r="1" gradientUnits="userSpaceOnUse" gradientTransform="translate(16.0015 19.4046) rotate(-90) scale(3.24058 10.9518)">
<stop offset="0.544445" stop-color="#835F98" stop-opacity="0"/>
<stop offset="0.915789" stop-color="#835F98"/>
</radialGradient>
</defs>
</svg>

<svg width="32" height="32" fill="none" xmlns="http://www.w3.org/2000/svg"><path d="M16.813 11.313c-.32.099-1.252.19-1.625 0-.922-.47-2.922-1.313-4-1.313-1.891 0-3.075 1.112-4.204 2.219-.832.816-3.203 4.39-4.187 6.187-.883 1.612 0 2.459.406 2.735 3.75 2.547 10.158 5.968 14.688 5.968 4.518 0 8.974-2.49 11.25-5.797.389-.565.78-1.89-.313-3.656-.995-1.606-3.011-4.652-3.844-5.468C23.856 11.08 22.584 10 20.922 10c-1.662 0-2.75.89-4.11 1.313Z" fill="#FF4860"/><path d="M16.813 11.313c-.32.099-1.252.19-1.625 0-.922-.47-2.922-1.313-4-1.313-1.891 0-3.075 1.112-4.204 2.219-.832.816-3.203 4.39-4.187 6.187-.883 1.612 0 2.459.406 2.735 3.75 2.547 10.158 5.968 14.688 5.968 4.518 0 8.974-2.49 11.25-5.797.389-.565.78-1.89-.313-3.656-.995-1.606-3.011-4.652-3.844-5.468C23.856 11.08 22.584 10 20.922 10c-1.662 0-2.75.89-4.11 1.313Z" fill="url(#a)"/><path d="M16.813 11.313c-.32.099-1.252.19-1.625 0-.922-.47-2.922-1.313-4-1.313-1.891 0-3.075 1.112-4.204 2.219-.832.816-3.203 4.39-4.187 6.187-.883 1.612 0 2.459.406 2.735 3.75 2.547 10.158 5.968 14.688 5.968 4.518 0 8.974-2.49 11.25-5.797.389-.565.78-1.89-.313-3.656-.995-1.606-3.011-4.652-3.844-5.468C23.856 11.08 22.584 10 20.922 10c-1.662 0-2.75.89-4.11 1.313Z" fill="url(#b)"/><path d="M16.813 11.313c-.32.099-1.252.19-1.625 0-.922-.47-2.922-1.313-4-1.313-1.891 0-3.075 1.112-4.204 2.219-.832.816-3.203 4.39-4.187 6.187-.883 1.612 0 2.459.406 2.735 3.75 2.547 10.158 5.968 14.688 5.968 4.518 0 8.974-2.49 11.25-5.797.389-.565.78-1.89-.313-3.656-.995-1.606-3.011-4.652-3.844-5.468C23.856 11.08 22.584 10 20.922 10c-1.662 0-2.75.89-4.11 1.313Z" fill="url(#c)"/><path d="M16.813 11.313c-.32.099-1.252.19-1.625 0-.922-.47-2.922-1.313-4-1.313-1.891 0-3.075 1.112-4.204 2.219-.832.816-3.203 4.39-4.187 6.187-.883 1.612 0 2.459.406 2.735 3.75 2.547 10.158 5.968 14.688 5.968 4.518 0 8.974-2.49 11.25-5.797.389-.565.78-1.89-.313-3.656-.995-1.606-3.011-4.652-3.844-5.468C23.856 11.08 22.584 10 20.922 10c-1.662 0-2.75.89-4.11 1.313Z" fill="url(#d)"/><path d="M16.813 11.313c-.32.099-1.252.19-1.625 0-.922-.47-2.922-1.313-4-1.313-1.891 0-3.075 1.112-4.204 2.219-.832.816-3.203 4.39-4.187 6.187-.883 1.612 0 2.459.406 2.735 3.75 2.547 10.158 5.968 14.688 5.968 4.518 0 8.974-2.49 11.25-5.797.389-.565.78-1.89-.313-3.656-.995-1.606-3.011-4.652-3.844-5.468C23.856 11.08 22.584 10 20.922 10c-1.662 0-2.75.89-4.11 1.313Z" fill="url(#e)"/><path d="M16.813 11.313c-.32.099-1.252.19-1.625 0-.922-.47-2.922-1.313-4-1.313-1.891 0-3.075 1.112-4.204 2.219-.832.816-3.203 4.39-4.187 6.187-.883 1.612 0 2.459.406 2.735 3.75 2.547 10.158 5.968 14.688 5.968 4.518 0 8.974-2.49 11.25-5.797.389-.565.78-1.89-.313-3.656-.995-1.606-3.011-4.652-3.844-5.468C23.856 11.08 22.584 10 20.922 10c-1.662 0-2.75.89-4.11 1.313Z" fill="url(#f)"/><path d="M16.813 11.313c-.32.099-1.252.19-1.625 0-.922-.47-2.922-1.313-4-1.313-1.891 0-3.075 1.112-4.204 2.219-.832.816-3.203 4.39-4.187 6.187-.883 1.612 0 2.459.406 2.735 3.75 2.547 10.158 5.968 14.688 5.968 4.518 0 8.974-2.49 11.25-5.797.389-.565.78-1.89-.313-3.656-.995-1.606-3.011-4.652-3.844-5.468C23.856 11.08 22.584 10 20.922 10c-1.662 0-2.75.89-4.11 1.313Z" fill="url(#g)"/><path d="M4.078 19.672c3 .656 2.805-.36 8.516-.36 3.321 0 6.03 1.883 9 2.141 2.136.186 4.75-1.049 6.343-1.656-.274-.09-2.505-.968-3.125-1.172-3.638-1.197-3.915-1.344-9.25-1.344-5.71 0-8.578 1.43-11.484 2.39Z" fill="#0A0D2D"/><g filter="url(#h)"><path d="M24.219 18.43c-2.31-.785-3.61-1.258-8.594-1.164-3.875.073-5.695.508-7.852 1.125.187.512.681.949 1.243 1.03 1.347.199 3.842.4 6.882.4 3.277 0 5.73-.216 7.149-.415.554-.077.977-.473 1.172-.976Z" fill="url(#i)"/><path d="M24.219 18.43c-2.31-.785-3.61-1.258-8.594-1.164-3.875.073-5.695.508-7.852 1.125.187.512.681.949 1.243 1.03 1.347.199 3.842.4 6.882.4 3.277 0 5.73-.216 7.149-.415.554-.077.977-.473 1.172-.976Z" fill="url(#j)"/></g><defs><radialGradient id="b" cx="0" cy="0" r="1" gradientUnits="userSpaceOnUse" gradientTransform="matrix(-4.7643 2.9448 -1.45193 -2.34904 24.03 19.386)"><stop stop-color="#FF6099"/><stop offset="1" stop-color="#FF6099" stop-opacity="0"/></radialGradient><radialGradient id="c" cx="0" cy="0" r="1" gradientUnits="userSpaceOnUse" gradientTransform="matrix(.375 2.15625 -4.83475 .84083 17.625 10)"><stop stop-color="#A7464A"/><stop offset="1" stop-color="#A7464A" stop-opacity="0"/></radialGradient><radialGradient id="d" cx="0" cy="0" r="1" gradientUnits="userSpaceOnUse" gradientTransform="rotate(-46.614 20.535 2.74) scale(12.5561 3.30154)"><stop offset=".327" stop-color="#B34146"/><stop offset="1" stop-color="#B34146" stop-opacity="0"/></radialGradient><radialGradient id="e" cx="0" cy="0" r="1" gradientUnits="userSpaceOnUse" gradientTransform="matrix(3.5625 2.40625 -.8988 1.3307 13.5 10)"><stop stop-color="#EE7278"/><stop offset="1" stop-color="#EE7278" stop-opacity="0"/></radialGradient><radialGradient id="f" cx="0" cy="0" r="1" gradientUnits="userSpaceOnUse" gradientTransform="matrix(.5625 1.8125 -6.2887 1.95166 11.938 19.656)"><stop offset=".2" stop-color="#E7284F"/><stop offset="1" stop-color="#EE2B51" stop-opacity="0"/></radialGradient><radialGradient id="g" cx="0" cy="0" r="1" gradientUnits="userSpaceOnUse" gradientTransform="matrix(0 1.5625 -7.4375 0 12.938 19.094)"><stop offset=".36" stop-color="#AD1638"/><stop offset=".84" stop-color="#B11739" stop-opacity="0"/></radialGradient><radialGradient id="j" cx="0" cy="0" r="1" gradientUnits="userSpaceOnUse" gradientTransform="matrix(0 -3.24058 10.9518 0 16.002 19.405)"><stop offset=".544" stop-color="#835F98" stop-opacity="0"/><stop offset=".916" stop-color="#835F98"/></radialGradient><linearGradient id="a" x1="24.875" y1="18.422" x2="8.5" y2="18.555" gradientUnits="userSpaceOnUse"><stop offset=".314" stop-color="#FF58AD"/><stop offset=".707" stop-color="#FF58AD" stop-opacity="0"/></linearGradient><linearGradient id="i" x1="20.786" y1="18.893" x2="8.025" y2="18.893" gradientUnits="userSpaceOnUse"><stop offset=".321" stop-color="#F5E4FF"/><stop offset="1" stop-color="#DAC6E4"/></linearGradient><filter id="h" x="7.773" y="17.05" width="16.445" height="2.77" filterUnits="userSpaceOnUse" color-interpolation-filters="sRGB"><feFlood flood-opacity="0" result="BackgroundImageFix"/><feBlend in="SourceGraphic" in2="BackgroundImageFix" result="shape"/><feColorMatrix in="SourceAlpha" values="0 0 0 0 0 0 0 0 0 0 0 0 0 0 0 0 0 0 127 0" result="hardAlpha"/><feOffset dy="-.204"/><feGaussianBlur stdDeviation=".305"/><feComposite in2="hardAlpha" operator="arithmetic" k2="-1" k3="1"/><feColorMatrix values="0 0 0 0 0.560784 0 0 0 0 0.384314 0 0 0 0 0.576471 0 0 0 1 0"/><feBlend in2="shape" result="effect1_innerShadow_20020_7173"/></filter></defs></svg>
